X:1
T:The Sloe
L:1/4
M:4/4
I:linebreak $
K:D
V:1 treble 
V:1
|: A | d A d e | f3/2 e/ d c | B A B/c/d/B/ | A G F A | d A d e | f3/2 e/ d c | B A B c | d2 d :: %9
 A |$ (3B/c/B/ A F A | (3B/c/B/ A F d/d/ | d c/c/ c B/B/ | B A A d/d/ | d c c e/e/ | e d d f | %16
 f e B c | d2 d :| %18
